X:1
T:Title
%%score 1 2 3
L:1/8
M:3/2
K:C
V:1 treble nm="Part_1"
V:2 treble-8 nm="Part_2"
V:3 treble-8 nm="Part_3"
V:1
 A6 G2 E4 | ^F4 G6 F2 | A4 _B6 A2 | A4 G4 z4 | A4 A4 F4 | E4 A6 G2 | G4 E2 F4 G2 | F4 E6 C2 | %8
 D2 C2 A,2 z2 E2 DE | F2 E3 D D3 CCB, | D4 z4 z4 | F4 F4 F4 | E8 A4 | A4 _B6 G2 | A4 G6 F2 | %15
 A4 z2 _B2 A2 G2 | F4 E4 F2 D2 | F8 z4 | D4 D4 D4 | ^C8 z4 | F4 F4 D4 | C4 F6 D2 | _E4 D4 C2 _B,2 | %23
 A,4 z4 z4 | ^F4 F4 F4 | G8 G4 | A4 c6 _B2 | B4 A6 G2 | G4 A2 F2 G2 E2 | G12 |] %30
V:2
 A8 c4 | d4 e6 d2 | d8 c4- | c4 B8 | A4 A4 A4 | c8 d4 | B4 A8 | D4 C8 | F8 G4 | A4 F2 D2 E4 | %10
 D12- | D12 | A8 A4 | c4 d8 | c4 B8 | A4 d6 B2 | d4 c8- | c8 z4 | f4 f4 f4 | e8 ^c4 | d8 B4 | %21
 A8 D4 | C4 F6 G2 | A4 G2 c4 B2 | A12 | E4 E4 E4 | F8 F4 | G4 d8 | B4 A8 | G12 |] %30
V:3
 A8 A4 | D4 C8 | F4 G6 A2 | F4 G8 | D4 z4 D4 | A8 D4 | G4 D8 | A2 B2 c6 B2 | A4 D4 E2 C2 | %9
 c2 B3 A A3 GGF | A8 z4 | d4 d4 d4 | c8 c4 | A4 G4 D4 | F4 G8 | z4 G4 D4 | z4 A8- | A8 z4 | D8 D4 | %19
 A8 A4 | D8 G4 | A4 D4 F4 | G4 D8 | c4 B2 A4 G2 | D8 D4 | C12 | c4 c4 A4 | d4 z2 D2 F4 | G4 D8 | %29
 d12 |] %30

